X: 1
T: Polska #3 i D
O: Sweden
Z: 2009 John Chambers <jc:trillian.mit.edu>
S: handwritten MS by JC from the 1970s
M: 3/4
L: 1/8
K: D
|: "D"a2 ~a2 b>a | af de f2 |1,3 "A7"eg ec ef | "D"gb af df :|2,4 "A7"eg ec Ac | "D"d2 d4 :|
|: "D"f2 (3fgf ef | "G"g2 B4 | "A7"AB cd ec |1,3 "D"de fg a2 :|2,4 "D"d2 d4 :|

